src/assets/img/bares_g.svg

<svg fill="none" viewBox="0 0 150 200" xmlns="http://www.w3.org/2000/svg"><g fill="#fff"><path d="m127 60.9366h-104c0 26.6104 20.0017 48.5364 45.791 51.6064v62.457h12.418v-62.457c25.789-3.07 45.791-24.996 45.791-51.6064z"/><path d="m109.761 48.4597c-5.368 5.3671-14.0708 5.3671-19.4383 0-5.3683-5.367-5.3683-14.0681 0-19.4344 5.3675-5.3671 14.0703-5.3671 19.4383 0 5.369 5.3663 5.369 14.0674 0 19.4344z"/></g></svg>

<svg viewBox="0 0 150 200" fill="none" xmlns="http://www.w3.org/2000/svg">
<path d="M127 60.9366H23C23 87.547 43.0017 109.473 68.791 112.543V175H81.209V112.543C106.998 109.473 127 87.547 127 60.9366Z" fill="white"/>
<path d="M109.761 48.4597C104.393 53.8268 95.6902 53.8268 90.3227 48.4597C84.9544 43.0927 84.9544 34.3916 90.3227 29.0253C95.6902 23.6582 104.393 23.6582 109.761 29.0253C115.13 34.3916 115.13 43.0927 109.761 48.4597Z" fill="white"/>
</svg>
